resources/svg/dropbox-fill.svg

<svg fill="currentColor" viewBox="0 0 24 24" xmlns="http://www.w3.org/2000/svg"><path d="M17.2847 10.6683L22.5 13.9909L17.248 17.3368L12 13.9934L6.75198 17.3368L1.5 13.9909L6.7152 10.6684L1.5 7.34587L6.75206 4L11.9999 7.34335L17.2481 4L22.5 7.34587L17.2847 10.6683ZM17.2112 10.6684L11.9999 7.3484L6.78869 10.6683L12 13.9883L17.2112 10.6684ZM6.78574 18.4456L12.0377 15.1L17.2898 18.4456L12.0377 21.7916L6.78574 18.4456Z"/></svg>

<svg xmlns="http://www.w3.org/2000/svg" viewBox="0 0 24 24" fill="currentColor">
    <g>
        <path fill="none" d="M0 0h24v24H0z"/>
        <path d="M17.285 10.668l5.215 3.323-5.252 3.346L12 13.993l-5.248 3.344L1.5 13.99l5.215-3.323L1.5 7.346 6.752 4 12 7.343 17.248 4 22.5 7.346l-5.215 3.322zm-.074 0L12 7.348l-5.211 3.32L12 13.988l5.211-3.32zM6.786 18.446l5.252-3.346 5.252 3.346-5.252 3.346-5.252-3.346z"/>
    </g>
</svg>
